X:135
T:Waltz. JGi.135
M:3/8
L:1/8
Q:3/8=60
S:Joshua Gibbons MS,1823,Tealby,Lincs.
R:waltz
O:Tealby,Lincolnshire
Z:VMP/R.Greig, 2009
K:C
G|GGG|GGG|G3|c2G|GGG|GGG|G3|
d2G|eee|fdB|ccc|cBA|Gce|gfe|c3|c3:|
|:G|c/B/c/B/c/B/|c/B/c/B/c/d/|e2c|G2e|f2d|c/B/A/G/A/B/|ccd|c2:|
|:c/e/|g/f/g/a/b/c'/|c2d/c/|B/c/d/e/f/g/|fe c/e/|g/f/g/a/b/c'/|c2d/c/|G/A/B/c/d/e/|c2:|
|:E|ee/e/e|e2d|cBA|GBE|ee/e/e|e2d|cBA|e2:|
|:c/e/|g/f/g/a/b/c'/|c2d/c/|B/c/d/e/f/g/|fe c/e/|g/f/g/a/b/c'/|c2d/c/|G/A/B/c/d/B/|c2:|
|:G|ecG|cGE|FdB|ceG|ecG|cGE|FdB|c2:|
|:d|dcB|BAF|c/B/ cd|e2d|dcB|BAG|c/B/c/e/d/B/|c2:|

